X: 19101
T: Miss Jeannie S. Grant's Favourite
C: Charles Grant
R: jig
Z: 1997 by John Chambers <jc:trillian.mit.edu>
B: RSCDS 19-10(I)
M: 6/8
L: 1/8
%--------------------
K: A
|: E \
| "A"A>GA "E7"B>GE | "A"A>GA "D"d2e \
| "A"cAA "E7"B>Ec | "D"d>F"E"G "A"A2 :| \
c/d/ \
| "A"e>cA a>cA | e>cA "E7"B>GE |
| "A"e>cA a>cA | "E7"b>ge "A"a2c/d/ \
| "A"e>cA a>cA | e>cA "E7"B>GE \
| "A"A>EC "(D)"A>EC | "E7"D>BG "A"A2 |]
%%center Book19/19101-Miss_Jeannie_S_Grants_Favourite-1.abc

%%sep 1 1 500
%%sep 1 1 500

